X: 21083
M: 2/4
L: 1/16
K: Bb
V: 1 name="3"
d3c B2B2 | c2B2 B2Bc | d2cB f2ed | c2c2 c2^c2 |\
d3c Bcde | fefg fedc | BABd cABG | F2F2 "D.C."F2 |]
d2cB f2ga | b2f2 f2^f2 | g2f2 e2d2 | d4 B2BB |\
d2cB f2ga | b2f2 f2gf | .e2.d2 .c2.B2 | =fefg f_ed"^D.C."c |]


